assets/images/index/item-1.svg

<svg width="57" height="91" viewBox="0 0 57 91" fill="none" xmlns="http://www.w3.org/2000/svg">
<path d="M47.3068 19.6295L16.6463 1.75086C14.2276 0.314829 12.0224 0.243027 10.3862 1.17645L3.05896 5.48455C4.624 4.55113 6.82928 4.69473 9.31911 6.05896L39.9796 23.9376C44.817 26.7379 48.8007 33.7026 48.8007 39.375V84.251C48.8007 87.0513 47.8048 89.0617 46.2398 89.9952L53.567 85.6871C55.132 84.7536 56.128 82.7432 56.128 79.9429V34.9951C56.128 29.3227 52.1442 22.4298 47.3068 19.6295Z" fill="white"/>
<path d="M46.1686 90.4253C46.0263 90.4253 45.8129 90.3535 45.7418 90.1381C45.5995 89.9227 45.6706 89.5637 45.9552 89.4201C47.4491 88.5584 48.3027 86.6916 48.3027 84.1067V39.3025C48.3027 33.7737 44.4613 27.0962 39.7662 24.3677L9.03453 6.48908C6.90038 5.26845 4.76624 5.05305 3.34348 5.84286C3.13007 5.98647 2.77438 5.91467 2.6321 5.62746C2.48982 5.41205 2.6321 5.12485 2.84551 4.98124L10.1727 0.673141C11.9512 -0.403885 14.441 -0.188479 16.9309 1.31936L47.5914 19.198C52.571 22.1419 56.6259 29.2502 56.6259 35.0662V79.9422C56.6259 82.8861 55.63 85.0402 53.7804 86.1172L46.4532 90.4253C46.382 90.3535 46.2397 90.4253 46.1686 90.4253ZM5.97559 4.33503C7.1138 4.47863 8.32315 4.83764 9.60363 5.55566L40.2641 23.4343C45.2438 26.3782 49.2987 33.4865 49.2987 39.3025V84.1785C49.2987 85.6146 49.0141 86.907 48.5873 87.9122L53.2824 85.1838C54.7763 84.3221 55.63 82.4553 55.63 79.8704V34.9944C55.63 29.4656 51.7885 22.7881 47.0934 20.0596L16.4329 2.18098C14.2987 0.960348 12.1646 0.744943 10.7418 1.53476L5.97559 4.33503Z" fill="#0000BD"/>
<path d="M48.8007 84.1066C48.8007 86.9069 47.8048 88.9173 46.2398 89.8507C44.6747 90.7842 42.4695 90.6406 39.9796 89.2763L9.31911 71.3977C4.48172 68.5974 0.497986 61.6327 0.497986 56.0321V11.1561C0.497986 8.35579 1.49392 6.34535 3.05896 5.41192C4.62399 4.4785 6.82928 4.62211 9.31911 5.98634L39.9796 23.865C44.817 26.6652 48.8007 33.63 48.8007 39.3023V84.1066Z" fill="white"/>
<path d="M43.8922 90.9995C42.6117 90.9995 41.1889 90.5686 39.695 89.707L9.03454 71.8284C4.05487 68.9563 0 61.848 0 56.032V11.1559C0 8.21208 0.995933 6.05803 2.84552 4.981C4.62397 3.90398 7.11381 4.11938 9.60364 5.62722L40.2641 23.5058C45.2438 26.4497 49.2987 33.5581 49.2987 39.374V84.2501C49.2987 87.194 48.3028 89.348 46.4532 90.425C45.6706 90.784 44.817 90.9995 43.8922 90.9995ZM5.40649 5.34001C4.62397 5.34001 3.98373 5.48361 3.34349 5.84262C1.84959 6.70424 0.995933 8.64289 0.995933 11.1559V56.032C0.995933 61.5607 4.83739 68.2383 9.5325 70.9668L40.193 88.8454C42.3272 90.066 44.4613 90.3532 45.8841 89.4916C47.378 88.63 48.2316 86.7631 48.2316 84.1783V39.3022C48.2316 33.7735 44.3902 27.0959 39.695 24.3675L9.03454 6.48884C7.82519 5.69902 6.5447 5.34001 5.40649 5.34001Z" fill="#0000BD"/>
<path d="M10.8841 64.3619C8.74995 63.0695 6.9715 60.0538 6.9715 57.5407V23.7221C6.9715 22.4297 7.39832 21.5681 8.10971 21.1373C8.82109 20.7065 9.81702 20.7783 10.8841 21.4245L38.13 37.2927C40.2641 38.5851 42.0426 41.6008 42.0426 44.1138V77.9324C42.0426 79.2248 41.6157 80.0865 40.9044 80.5173C40.193 80.9481 39.197 80.8763 38.13 80.2301L10.8841 64.3619Z" fill="white"/>
<path d="M39.8373 81.3073C39.1971 81.3073 38.5568 81.0919 37.8454 80.7329L10.5996 64.7929C8.32313 63.5004 6.4024 60.1976 6.4024 57.5409V23.7223C6.4024 22.2863 6.90037 21.281 7.82517 20.7066C8.74996 20.204 9.88817 20.2758 11.0975 20.9938L38.3434 36.862C40.6198 38.2262 42.5405 41.4573 42.5405 44.1858V78.0044C42.5405 79.4404 42.0426 80.5174 41.1178 81.0201C40.7621 81.1637 40.3353 81.3073 39.8373 81.3073ZM9.10565 21.4246C8.8211 21.4246 8.53655 21.4964 8.32313 21.6401C7.75403 21.9991 7.39834 22.7171 7.39834 23.7223V57.5409C7.39834 59.8386 9.10565 62.7824 11.0975 63.9313L38.3434 79.7994C39.1971 80.302 40.0507 80.3738 40.6198 80.0866C41.1889 79.7276 41.5446 79.0096 41.5446 78.0044V44.1858C41.5446 41.8881 39.8373 38.9443 37.8454 37.7954L10.5996 21.8555C10.1016 21.5682 9.53248 21.4246 9.10565 21.4246Z" fill="black"/>
<path d="M38.13 37.2927L10.8841 21.4245C9.81702 20.7783 8.82109 20.7065 8.10971 21.1373L5.4776 22.6451C6.18898 22.2143 7.18491 22.2861 8.25199 22.9323L35.4979 38.8005C37.632 40.0929 39.4105 43.1086 39.4105 45.6216V79.4403C39.4105 80.7327 38.9836 81.5943 38.2723 82.0251L40.9044 80.5173C41.6157 80.0865 42.0426 79.2248 42.0426 77.9324V44.1856C42.0426 41.6726 40.2641 38.5851 38.13 37.2927Z" fill="white"/>
<path d="M38.2723 82.5997C38.13 82.5997 37.9166 82.5279 37.8454 82.3125C37.7032 82.0971 37.7743 81.7381 38.0588 81.5945C38.628 81.2355 38.9836 80.5174 38.9836 79.5122V45.6936C38.9836 43.396 37.2763 40.4521 35.2845 39.3033L7.96745 23.3633C7.11379 22.8607 6.26013 22.7889 5.69103 23.1479C5.47761 23.2915 5.12192 23.2197 4.97965 22.9325C4.83737 22.7171 4.90851 22.3581 5.19306 22.2145L7.82517 20.7066C8.74996 20.204 9.88817 20.2758 11.0975 20.9938L38.3434 36.862C40.6198 38.2262 42.5405 41.4573 42.5405 44.1858V78.0044C42.5405 79.4404 42.0426 80.5175 41.1178 81.0201L38.4857 82.5279C38.4145 82.5279 38.3434 82.5997 38.2723 82.5997ZM7.54062 22.0709C7.82517 22.1427 8.18086 22.2863 8.53655 22.5017L35.7824 38.3699C38.0588 39.7341 39.9796 42.9652 39.9796 45.6936V79.5122C39.9796 79.8712 39.9084 80.2302 39.9084 80.5892L40.691 80.0866C41.2601 79.7276 41.6158 79.0096 41.6158 78.0044V44.1858C41.6158 41.8881 39.9084 38.9443 37.9166 37.7954L10.5996 21.8555C9.7459 21.3528 8.89224 21.281 8.32314 21.5682L7.54062 22.0709Z" fill="#DF0112"/>
<path d="M8.25201 65.8695C6.11787 64.577 4.33942 61.5614 4.33942 59.0483V25.2297C4.33942 23.9373 4.76624 23.0756 5.47763 22.6448C6.18901 22.214 7.18494 22.2858 8.25201 22.932L35.4979 38.8002C37.632 40.0926 39.4105 43.1083 39.4105 45.6214V79.44C39.4105 80.7324 38.9837 81.594 38.2723 82.0248C37.5609 82.4557 36.565 82.3839 35.4979 81.7376L8.25201 65.8695Z" fill="white"/>
<path d="M37.2763 82.8148C36.6361 82.8148 35.9958 82.5994 35.2845 82.2404L7.96744 66.3722C5.69102 65.008 3.84143 61.7051 3.84143 59.0485V25.2299C3.84143 23.7938 4.3394 22.7886 5.26419 22.2142C6.18899 21.7116 7.3272 21.7834 8.53654 22.5014L35.7824 38.3696C38.0588 39.7338 39.9796 42.9649 39.9796 45.6934V79.512C39.9796 80.948 39.4816 82.025 38.5568 82.5276C38.13 82.743 37.7032 82.8148 37.2763 82.8148ZM6.47354 22.9322C6.18899 22.9322 5.90443 23.004 5.69102 23.1476C5.12192 23.5066 4.76623 24.2246 4.76623 25.2299V59.0485C4.76623 61.3461 6.47354 64.29 8.46541 65.4388L35.7113 81.307C36.5649 81.8096 37.4186 81.8814 37.9877 81.5942C38.5568 81.2352 38.9125 80.5172 38.9125 79.512V45.6934C38.9125 43.3957 37.2052 40.4518 35.2133 39.303L7.96744 23.363C7.46947 23.0758 6.97151 22.9322 6.47354 22.9322Z" fill="#DF0112"/>
<path d="M10.8841 30.8301L7.46948 28.8915V22.5011L10.8841 24.4397V30.8301Z" fill="white"/>
<path d="M7.46948 22.5013L12.9471 19.2703L16.2906 21.2807L10.8841 24.44L7.46948 22.5013Z" fill="white"/>
<path d="M10.8841 31.4043C10.813 31.4043 10.7418 31.4043 10.5996 31.3325L7.18494 29.3221C7.04267 29.2503 6.90039 29.0349 6.90039 28.8912V22.5009C6.90039 22.2855 6.97153 22.1419 7.18494 22.0701C7.32722 21.9983 7.54063 21.9983 7.68291 22.0701L11.0975 24.0805C11.2398 24.1523 11.3821 24.3677 11.3821 24.5113V30.9017C11.3821 31.1171 11.311 31.2607 11.0975 31.3325C11.0264 31.3325 10.9553 31.4043 10.8841 31.4043ZM7.96746 28.604L10.315 29.9683V24.7268L7.96746 23.3625V28.604Z" fill="#DF0112"/>
<path d="M13.7296 29.1792V26.1635L16.2906 24.5839V21.281L10.8841 24.4403V30.8306L13.7296 29.1792Z" fill="white"/>
<path d="M10.8841 31.4048C10.813 31.4048 10.7418 31.4048 10.5996 31.333C10.4573 31.2612 10.315 31.0458 10.315 30.9022V24.4401C10.315 24.2247 10.3861 24.0811 10.5996 24.0093L16.0772 20.85C16.2195 20.7782 16.4329 20.7782 16.5752 20.85C16.7174 20.9218 16.8597 21.1372 16.8597 21.2808V24.6555C16.8597 24.8709 16.7886 25.0145 16.5752 25.0863L14.2276 26.4505V29.179C14.2276 29.3944 14.1565 29.538 13.943 29.6098L11.0975 31.2612C11.0264 31.333 10.9552 31.4048 10.8841 31.4048ZM11.3821 24.7273V29.9688L13.2317 28.8918V26.1633C13.2317 25.9479 13.3028 25.8043 13.5162 25.7325L15.8638 24.3683V22.2142L11.3821 24.7273Z" fill="#DF0112"/>
<path d="M10.8841 24.9423C10.813 24.9423 10.7418 24.9423 10.5996 24.8705L7.18494 22.86C7.04267 22.7882 6.90039 22.5728 6.90039 22.4292C6.90039 22.2138 6.97153 22.0702 7.18494 21.9984L12.6626 18.8391C12.8049 18.7673 13.0183 18.7673 13.1605 18.8391L16.5752 20.8496C16.7174 20.9214 16.8597 21.1368 16.8597 21.2804C16.8597 21.4958 16.7886 21.6394 16.5752 21.7112L11.0975 24.8705C11.0264 24.9423 10.9553 24.9423 10.8841 24.9423ZM8.46543 22.501L10.813 23.8652L15.2947 21.2804L12.9471 19.9162L8.46543 22.501Z" fill="#DF0112"/>
<path d="M31.0874 42.6779L27.6727 40.6674V34.2771L31.0874 36.2157V42.6779Z" fill="white"/>
<path d="M31.0873 43.1802C31.0162 43.1802 30.8739 43.1802 30.8028 43.1084L27.3881 41.0979C27.2459 41.0261 27.1036 40.8107 27.1036 40.6671V34.2768C27.1036 34.0614 27.1747 33.9178 27.3881 33.846C27.5304 33.7742 27.7438 33.7742 27.8861 33.846L31.3007 35.8564C31.443 35.9282 31.5853 36.1436 31.5853 36.2872V42.6776C31.5853 42.893 31.5141 43.0366 31.3007 43.1084C31.3007 43.1802 31.1584 43.1802 31.0873 43.1802ZM28.2418 40.3799L30.5893 41.7442V36.5026L28.2418 35.1384V40.3799Z" fill="#DF0112"/>
<path d="M33.9329 40.9541V37.9384L36.565 36.4306V33.0559L31.0873 36.2152V42.6773L33.9329 40.9541Z" fill="white"/>
<path d="M31.0874 43.1805C31.0162 43.1805 30.9451 43.1805 30.8028 43.1087C30.6605 43.0369 30.5182 42.8215 30.5182 42.6778V36.2875C30.5182 36.0721 30.5894 35.9285 30.8028 35.8567L36.2804 32.6974C36.4227 32.6256 36.6361 32.6256 36.7784 32.6974C36.9207 32.7692 37.0629 32.9846 37.0629 33.1282V36.5029C37.0629 36.7183 36.9918 36.8619 36.7784 36.9337L34.4308 38.2979V40.9546C34.4308 41.17 34.3597 41.3136 34.1463 41.3854L31.3008 43.0369C31.3008 43.1805 31.1585 43.1805 31.0874 43.1805ZM31.5853 36.5747V41.8162L33.4349 40.7392V38.0107C33.4349 37.7953 33.506 37.6517 33.7195 37.5799L36.067 36.2157V34.0616L31.5853 36.5747Z" fill="#DF0112"/>
<path d="M27.6727 34.2771L33.1504 31.1178L36.565 33.0564L31.0874 36.2157L27.6727 34.2771Z" fill="white"/>
<path d="M31.0873 36.7898C31.0162 36.7898 30.8739 36.7898 30.8028 36.718L27.3881 34.7076C27.2459 34.6358 27.1036 34.4204 27.1036 34.2768C27.1036 34.1331 27.1747 33.9177 27.3881 33.8459L32.8658 30.6867C33.008 30.6149 33.2215 30.6149 33.3637 30.6867L36.7784 32.6971C36.9206 32.7689 37.0629 32.9843 37.0629 33.1279C37.0629 33.2715 36.9918 33.4869 36.7784 33.5587L31.3007 36.718C31.3007 36.718 31.1584 36.7898 31.0873 36.7898ZM28.7398 34.2768L31.0873 35.641L35.569 33.0561L33.2215 31.6919L28.7398 34.2768Z" fill="#DF0112"/>
<path d="M20.9857 36.79L17.5711 34.7795V28.3892L20.9857 30.3278V36.79Z" fill="white"/>
<path d="M20.9857 37.2921C20.9146 37.2921 20.8434 37.2921 20.7012 37.2203L17.3577 35.2099C17.2154 35.1381 17.0731 34.9227 17.0731 34.7791V28.3887C17.0731 28.1733 17.1443 28.0297 17.3577 27.9579C17.4999 27.8861 17.7134 27.8861 17.8556 27.9579L21.2703 29.9684C21.4125 30.0402 21.5548 30.2556 21.5548 30.3992V36.7895C21.5548 37.0049 21.4837 37.1485 21.2703 37.2203C21.128 37.2203 21.0569 37.2921 20.9857 37.2921ZM18.0691 34.4919L20.4166 35.8561V30.6146L18.0691 29.2503V34.4919Z" fill="#DF0112"/>
<path d="M23.8312 35.0659V32.0502L26.4633 30.5424V27.1677L20.9857 30.327V36.7892L23.8312 35.0659Z" fill="white"/>
<path d="M20.9857 37.2925C20.9146 37.2925 20.8435 37.2925 20.7012 37.2207C20.5589 37.1489 20.4166 36.9335 20.4166 36.7899V30.3996C20.4166 30.1841 20.4878 30.0405 20.7012 29.9687L26.1788 26.8095C26.3211 26.7377 26.5345 26.7377 26.6768 26.8095C26.819 26.8813 26.9613 27.0967 26.9613 27.2403V30.615C26.9613 30.8304 26.8902 30.974 26.6768 31.0458L24.3292 32.3382V35.0667C24.3292 35.2821 24.2581 35.4257 24.0447 35.4975L21.1991 37.1489C21.128 37.2207 21.0569 37.2925 20.9857 37.2925ZM21.4837 30.615V35.8565L23.3333 34.7795V32.051C23.3333 31.8356 23.4044 31.692 23.6178 31.6202L25.9654 30.2559V28.1019L21.4837 30.615Z" fill="#DF0112"/>
<path d="M17.5711 28.3893L23.0487 25.1582L26.4634 27.1687L20.9857 30.3279L17.5711 28.3893Z" fill="white"/>
<path d="M20.9857 30.8301C20.9146 30.8301 20.8434 30.8301 20.7012 30.7583L17.2865 28.7478C17.1443 28.7478 17.0731 28.5324 17.0731 28.3888C17.0731 28.2452 17.1443 28.0298 17.3577 27.958L22.8353 24.7987C22.9776 24.7269 23.191 24.7269 23.3333 24.7987L26.7479 26.8092C26.8902 26.881 27.0324 27.0964 27.0324 27.24C27.0324 27.4554 26.9613 27.599 26.7479 27.6708L21.2703 30.8301C21.128 30.8301 21.0569 30.8301 20.9857 30.8301ZM18.567 28.3888L20.9146 29.753L25.3963 27.1682L23.0487 25.804L18.567 28.3888Z" fill="#DF0112"/>
<path d="M20.8435 64.4338L10.5284 58.4742C10.6707 55.2431 12.2358 54.2379 14.2276 53.5199L15.6504 53.0891C17.5 52.4429 19.6341 51.7967 19.6341 48.422C19.6341 45.6217 18.1402 42.8933 15.7927 41.529C12.8049 39.8058 11.8089 41.9598 11.7378 45.4781L10.813 44.9755C10.813 44.6883 10.813 44.4729 10.813 44.3293C10.9553 40.3802 12.6626 38.657 15.7927 40.5238C18.6382 42.1752 20.4878 45.5499 20.4878 48.9964C20.4878 51.7967 19.3496 52.9455 17.7845 53.6635C17.002 54.0225 16.8597 54.0943 15.0813 54.6687C13.5874 55.1713 11.8089 55.6022 11.4532 57.9716L20.7012 63.3567V64.4338H20.8435Z" fill="#DF0112"/>
<path d="M23.3333 50.0006C23.3333 46.7696 25.1829 45.8361 28.0995 47.5594C31.0873 49.2826 32.8658 52.2983 32.8658 55.5294C32.8658 58.1142 31.6565 58.9759 30.0203 58.545C32.0121 60.1247 33.506 62.8531 33.506 65.9406C33.506 69.8897 31.443 71.1103 28.1707 69.1717C24.7561 67.1612 22.6931 63.5712 22.6931 59.7657C22.6931 56.6782 24.187 55.6012 26.25 56.391C24.3292 54.6677 23.3333 52.4419 23.3333 50.0006ZM23.6178 60.2683C23.6178 63.4994 25.3252 66.4432 28.0995 68.0947C30.8739 69.7461 32.5812 68.7409 32.5812 65.5098C32.5812 62.4223 30.8739 59.6221 28.0284 57.9706C25.254 56.3192 23.6178 57.1808 23.6178 60.2683ZM24.2581 50.5751C24.2581 53.1599 25.752 55.5294 28.1707 56.9654C30.5894 58.3296 32.0121 57.6834 32.0121 55.0986C32.0121 52.4419 30.5894 50.1442 28.0995 48.6364C25.6097 47.2004 24.2581 47.9184 24.2581 50.5751Z" fill="#DF0112"/>
</svg>

<svg width="57" height="91" fill="none" xmlns="http://www.w3.org/2000/svg"><path d="M47.307 19.63L16.647 1.75c-2.42-1.435-4.625-1.507-6.26-.574L3.058 5.485c1.565-.934 3.77-.79 6.26.574l30.66 17.879c4.838 2.8 8.822 9.765 8.822 15.437v44.876c0 2.8-.996 4.81-2.561 5.744l7.327-4.308c1.565-.933 2.561-2.944 2.561-5.744V34.995c0-5.672-3.984-12.565-8.821-15.365z" fill="#fff"/><path d="M46.169 90.425c-.143 0-.356-.072-.427-.287-.142-.215-.071-.574.213-.718 1.494-.862 2.348-2.728 2.348-5.313V39.303c0-5.53-3.842-12.207-8.537-14.935L9.035 6.489C6.9 5.27 4.766 5.053 3.343 5.843c-.213.143-.569.072-.71-.216-.143-.215 0-.502.213-.646L10.173.673c1.778-1.077 4.268-.861 6.758.646l30.66 17.879c4.98 2.944 9.035 10.052 9.035 15.868v44.876c0 2.944-.996 5.098-2.846 6.175l-7.327 4.308c-.071-.072-.213 0-.284 0zM5.976 4.335c1.138.144 2.347.503 3.628 1.22l30.66 17.88c4.98 2.943 9.035 10.052 9.035 15.868v44.876c0 1.436-.285 2.728-.712 3.733l4.695-2.728c1.494-.862 2.348-2.729 2.348-5.314V34.994c0-5.528-3.842-12.206-8.537-14.934L16.433 2.18C14.299.96 12.165.744 10.742 1.534l-4.766 2.8z" fill="#0000BD"/><path d="M48.8 84.107c0 2.8-.995 4.81-2.56 5.744-1.565.933-3.77.79-6.26-.575L9.32 71.398C4.481 68.598.497 61.633.497 56.032V11.156c0-2.8.996-4.81 2.561-5.744 1.565-.933 3.77-.79 6.26.574l30.66 17.879c4.838 2.8 8.822 9.765 8.822 15.437v44.805z" fill="#fff"/><path d="M43.892 91c-1.28 0-2.703-.431-4.197-1.293L9.035 71.828C4.055 68.956 0 61.848 0 56.032V11.156C0 8.212.996 6.058 2.846 4.98c1.778-1.077 4.268-.862 6.758.646l30.66 17.879c4.98 2.944 9.035 10.052 9.035 15.868V84.25c0 2.944-.996 5.098-2.846 6.175a6.09 6.09 0 01-2.56.575zM5.406 5.34c-.782 0-1.422.144-2.063.503-1.493.861-2.347 2.8-2.347 5.313v44.876c0 5.529 3.841 12.206 8.537 14.935l30.66 17.878c2.134 1.221 4.268 1.508 5.691.647 1.494-.862 2.348-2.729 2.348-5.314V39.302c0-5.529-3.842-12.206-8.537-14.934L9.035 6.488C7.825 5.7 6.545 5.34 5.406 5.34z" fill="#0000BD"/><path d="M10.884 64.362C8.75 63.07 6.971 60.054 6.971 57.54V23.722c0-1.292.427-2.154 1.139-2.585.711-.43 1.707-.359 2.774.287L38.13 37.293c2.134 1.292 3.913 4.308 3.913 6.82v33.82c0 1.292-.427 2.153-1.139 2.584-.711.431-1.707.36-2.774-.287L10.884 64.362z" fill="#fff"/><path d="M39.837 81.307c-.64 0-1.28-.215-1.992-.574L10.6 64.793C8.323 63.5 6.402 60.198 6.402 57.54V23.722c0-1.436.498-2.441 1.423-3.015.925-.503 2.063-.431 3.272.287l27.246 15.868c2.277 1.364 4.197 4.595 4.197 7.324v33.818c0 1.436-.497 2.513-1.422 3.016-.356.144-.783.287-1.28.287zM9.106 21.425c-.285 0-.57.071-.783.215-.569.36-.925 1.077-.925 2.082v33.819c0 2.298 1.708 5.241 3.7 6.39L38.343 79.8c.854.503 1.708.575 2.277.288.569-.36.925-1.077.925-2.083V44.186c0-2.298-1.708-5.242-3.7-6.39L10.6 21.855c-.498-.288-1.068-.431-1.494-.431z" fill="#000"/><path d="M38.13 37.293L10.884 21.424c-1.067-.646-2.063-.718-2.774-.287l-2.632 1.508c.711-.43 1.707-.359 2.774.287l27.246 15.869c2.134 1.292 3.913 4.308 3.913 6.82v33.82c0 1.292-.427 2.153-1.139 2.584l2.632-1.508c.712-.43 1.139-1.292 1.139-2.585V44.186c0-2.513-1.779-5.6-3.913-6.893z" fill="#fff"/><path d="M38.272 82.6c-.142 0-.355-.072-.427-.287-.142-.216-.07-.575.214-.719.569-.358.925-1.077.925-2.082V45.694c0-2.298-1.708-5.242-3.7-6.39L7.968 23.363c-.853-.503-1.707-.575-2.276-.216-.213.143-.57.072-.711-.215-.143-.216-.071-.575.213-.718l2.632-1.508c.925-.503 2.063-.431 3.272.287l27.246 15.868c2.277 1.364 4.197 4.595 4.197 7.324v33.818c0 1.436-.497 2.513-1.422 3.016l-2.632 1.508c-.072 0-.143.072-.214.072zM7.541 22.07c.284.073.64.216.996.432L35.782 38.37c2.277 1.364 4.198 4.595 4.198 7.324v33.818c0 .36-.072.718-.072 1.077l.783-.502c.57-.36.925-1.077.925-2.083V44.186c0-2.298-1.708-5.242-3.7-6.39L10.6 21.855c-.854-.503-1.708-.575-2.277-.288l-.782.503z" fill="#DF0112"/><path d="M8.252 65.87c-2.134-1.293-3.913-4.309-3.913-6.822V25.23c0-1.293.427-2.154 1.139-2.585.711-.431 1.707-.36 2.774.287L35.498 38.8c2.134 1.293 3.913 4.308 3.913 6.821V79.44c0 1.292-.427 2.154-1.139 2.585-.711.43-1.707.359-2.774-.287L8.252 65.87z" fill="#fff"/><path d="M37.276 82.815c-.64 0-1.28-.216-1.992-.575L7.968 66.372c-2.276-1.364-4.126-4.667-4.126-7.324V25.23c0-1.436.498-2.441 1.423-3.016.925-.502 2.063-.43 3.273.287L35.782 38.37c2.277 1.364 4.198 4.595 4.198 7.323v33.819c0 1.436-.498 2.513-1.423 3.016a2.768 2.768 0 01-1.28.287zM6.474 22.932c-.285 0-.57.072-.783.216-.57.359-.925 1.077-.925 2.082v33.819c0 2.297 1.708 5.241 3.7 6.39L35.71 81.307c.854.503 1.708.574 2.277.287.569-.359.925-1.077.925-2.082V45.693c0-2.297-1.708-5.241-3.7-6.39L7.967 23.363c-.498-.287-.995-.43-1.493-.43z" fill="#DF0112"/><path d="M10.884 30.83L7.47 28.892v-6.39l3.415 1.938v6.39z" fill="#fff"/><path d="M7.47 22.501l5.477-3.23 3.344 2.01-5.407 3.159-3.415-1.939z" fill="#fff"/><path d="M10.884 31.404c-.071 0-.142 0-.284-.072l-3.415-2.01c-.142-.072-.285-.287-.285-.43V22.5c0-.216.072-.36.285-.43a.603.603 0 01.498 0l3.415 2.01c.142.071.284.287.284.43v6.39c0 .216-.071.36-.284.431-.072 0-.143.072-.214.072zm-2.917-2.8l2.348 1.364v-5.241l-2.348-1.364v5.241z" fill="#DF0112"/><path d="M13.73 29.18v-3.017l2.56-1.58v-3.302l-5.406 3.16v6.39l2.846-1.652z" fill="#fff"/><path d="M10.884 31.405c-.071 0-.142 0-.284-.072-.143-.072-.285-.287-.285-.43V24.44c0-.215.071-.359.285-.43l5.477-3.16a.603.603 0 01.498 0c.142.072.285.287.285.43v3.375c0 .216-.071.36-.285.431l-2.347 1.365v2.728c0 .215-.072.359-.285.43l-2.845 1.652c-.072.072-.143.144-.214.144zm.498-6.678v5.242l1.85-1.077v-2.729c0-.215.07-.359.284-.43l2.348-1.365v-2.154l-4.482 2.513z" fill="#DF0112"/><path d="M10.884 24.942c-.071 0-.142 0-.284-.072l-3.415-2.01c-.142-.072-.285-.287-.285-.43 0-.216.072-.36.285-.432l5.478-3.159a.602.602 0 01.498 0l3.414 2.01c.142.072.285.288.285.431 0 .216-.071.36-.285.431l-5.477 3.16c-.072.071-.143.071-.214.071zm-2.419-2.441l2.348 1.364 4.482-2.585-2.348-1.364-4.482 2.585z" fill="#DF0112"/><path d="M31.087 42.678l-3.414-2.01v-6.39l3.414 1.938v6.462z" fill="#fff"/><path d="M31.087 43.18c-.07 0-.213 0-.284-.072l-3.415-2.01c-.142-.072-.284-.287-.284-.43v-6.391c0-.216.07-.36.284-.431a.603.603 0 01.498 0l3.415 2.01c.142.072.284.288.284.431v6.39c0 .216-.07.36-.284.431 0 .072-.143.072-.214.072zm-2.845-2.8l2.347 1.364v-5.241l-2.347-1.365v5.242z" fill="#DF0112"/><path d="M33.933 40.954v-3.016l2.632-1.507v-3.375l-5.478 3.16v6.461l2.846-1.723z" fill="#fff"/><path d="M31.087 43.18c-.07 0-.142 0-.284-.071-.143-.072-.285-.288-.285-.431v-6.39c0-.216.071-.36.285-.431l5.477-3.16a.603.603 0 01.498 0c.143.072.285.288.285.431v3.375c0 .215-.071.359-.285.43l-2.347 1.365v2.657c0 .215-.071.359-.285.43l-2.845 1.652c0 .144-.142.144-.214.144zm.498-6.605v5.241l1.85-1.077v-2.728c0-.216.071-.36.284-.431l2.348-1.364v-2.154l-4.482 2.513z" fill="#DF0112"/><path d="M27.673 34.277l5.477-3.16 3.415 1.94-5.478 3.159-3.414-1.939z" fill="#fff"/><path d="M31.087 36.79c-.07 0-.213 0-.284-.072l-3.415-2.01c-.142-.072-.284-.288-.284-.431 0-.144.07-.36.284-.431l5.478-3.16a.602.602 0 01.498 0l3.414 2.011c.143.072.285.287.285.43 0 .145-.071.36-.285.432l-5.477 3.159s-.143.072-.214.072zm-2.347-2.513l2.347 1.364 4.482-2.585-2.348-1.364-4.481 2.585z" fill="#DF0112"/><path d="M20.986 36.79l-3.415-2.01v-6.39l3.415 1.938v6.462z" fill="#fff"/><path d="M20.986 37.292c-.071 0-.143 0-.285-.072l-3.343-2.01c-.143-.072-.285-.287-.285-.43v-6.391c0-.216.071-.36.285-.431a.602.602 0 01.498 0l3.414 2.01c.143.072.285.288.285.431v6.39c0 .216-.071.36-.285.431-.142 0-.213.072-.284.072zm-2.917-2.8l2.348 1.364v-5.241l-2.348-1.365v5.242z" fill="#DF0112"/><path d="M23.831 35.066V32.05l2.632-1.508v-3.374l-5.477 3.159v6.462l2.845-1.723z" fill="#fff"/><path d="M20.986 37.292c-.071 0-.143 0-.285-.071-.142-.072-.284-.287-.284-.431V30.4c0-.216.07-.36.284-.431l5.478-3.16a.603.603 0 01.498 0c.142.072.284.288.284.431v3.375c0 .215-.07.359-.284.43l-2.348 1.293v2.729c0 .215-.07.359-.284.43l-2.846 1.652c-.071.072-.142.143-.213.143zm.498-6.677v5.241l1.85-1.077v-2.728c0-.215.07-.359.284-.43l2.347-1.365v-2.154l-4.481 2.513z" fill="#DF0112"/><path d="M17.571 28.39l5.478-3.232 3.414 2.01-5.477 3.16-3.415-1.939z" fill="#fff"/><path d="M20.986 30.83c-.071 0-.143 0-.285-.072l-3.415-2.01c-.142 0-.213-.216-.213-.36 0-.143.071-.358.285-.43l5.477-3.16a.603.603 0 01.498 0l3.415 2.011c.142.072.284.287.284.431 0 .215-.07.359-.284.43l-5.478 3.16h-.284zm-2.419-2.441l2.348 1.364 4.481-2.585-2.347-1.364-4.482 2.585zm2.276 36.045l-10.315-5.96c.143-3.23 1.708-4.236 3.7-4.954l1.422-.43c1.85-.647 3.984-1.293 3.984-4.668 0-2.8-1.494-5.529-3.841-6.893-2.988-1.723-3.984.43-4.055 3.95l-.925-.504v-.646c.142-3.949 1.85-5.672 4.98-3.805 2.845 1.651 4.695 5.026 4.695 8.472 0 2.8-1.138 3.95-2.703 4.667-.783.36-.925.431-2.704 1.006-1.494.502-3.272.933-3.628 3.303l9.248 5.385v1.077h.142zM23.333 50c0-3.23 1.85-4.164 4.767-2.44 2.987 1.723 4.766 4.738 4.766 7.97 0 2.584-1.21 3.446-2.846 3.015 1.992 1.58 3.486 4.308 3.486 7.396 0 3.949-2.063 5.17-5.335 3.23-3.415-2.01-5.478-5.6-5.478-9.405 0-3.088 1.494-4.165 3.557-3.375-1.92-1.723-2.917-3.95-2.917-6.39zm.285 10.268c0 3.231 1.707 6.175 4.482 7.827 2.774 1.651 4.481.646 4.481-2.585 0-3.088-1.707-5.888-4.553-7.54-2.774-1.65-4.41-.79-4.41 2.298zm.64-9.693c0 2.585 1.494 4.954 3.913 6.39 2.418 1.365 3.841.718 3.841-1.866 0-2.657-1.423-4.955-3.913-6.463-2.49-1.436-3.84-.718-3.84 1.94z" fill="#DF0112"/></svg>
